X:4349
T:Down With The French. JWDM.12
M:6/8
L:1/8
S:J.Winder MS,Wyresdale,Lancs.,1789
R:Jig
O:England
A:Lancashire
Z:vmp.Taz Tarry
K:D
a2fa2f|ded f3|g2fg2f|efd cBA|a2fa2f|ded f3|egf edc|d3D3:|!
:e2ef2d|cdB A3|dAd fdf|a2fd3|e2ef2d|cdB A3|Bcd edc|d3D3:|]
